X: 11155
T: Dun Do Shuil
R: polka
M: 2/4
K: Gmajor
GG AF|GA Bc|de B2|GG AF|GA Bc|dG G2|AG G2||

